packages/katcn/src/icons/svg/searchFile.svg

<svg width="24" height="25" viewBox="0 0 24 25" fill="none" xmlns="http://www.w3.org/2000/svg">
<path fill-rule="evenodd" clip-rule="evenodd" d="M4 5.68809C4 3.88644 5.40423 2.28809 7.31339 2.28809H12.3425C13.3927 2.28809 14.4567 2.67989 15.2604 3.47893L15.2701 3.48859L18.8866 7.18414C19.6883 7.98458 20.0956 9.15706 19.9809 10.2452V18.8881C19.9809 20.6897 18.5767 22.2881 16.6675 22.2881H7.31339C5.40423 22.2881 4 20.6897 4 18.8881V5.68809ZM7.31339 4.28809C6.60742 4.28809 6 4.88974 6 5.68809V18.8881C6 19.6864 6.60742 20.2881 7.31339 20.2881H16.6675C17.3735 20.2881 17.9809 19.6864 17.9809 18.8881V10.1881C17.9809 10.1464 17.9835 10.1047 17.9888 10.0633C18.0504 9.57265 17.8563 8.98011 17.4712 8.59724L17.4615 8.58758L13.8459 4.89292C13.443 4.49478 12.8996 4.28809 12.3425 4.28809H7.31339Z" fill="black"/>
<path fill-rule="evenodd" clip-rule="evenodd" d="M10.6333 13.7159C10.0866 14.2627 10.0866 15.1491 10.6333 15.6958C11.18 16.2425 12.0664 16.2425 12.6132 15.6958C13.1599 15.1491 13.1599 14.2627 12.6132 13.7159C12.0664 13.1692 11.18 13.1692 10.6333 13.7159ZM9.21908 17.11C7.89131 15.7822 7.89131 13.6295 9.21908 12.3017C10.5469 10.974 12.6996 10.974 14.0274 12.3017C15.3551 13.6295 15.3551 15.7822 14.0274 17.11C12.6996 18.4378 10.5469 18.4378 9.21908 17.11Z" fill="black"/>
<path fill-rule="evenodd" clip-rule="evenodd" d="M12.5718 15.7027C12.9503 15.3005 13.5832 15.2813 13.9854 15.6599L15.6854 17.2599C16.0876 17.6384 16.1067 18.2713 15.7282 18.6734C15.3497 19.0756 14.7168 19.0948 14.3147 18.7163L12.6147 17.1163C12.2125 16.7377 12.1933 16.1049 12.5718 15.7027Z" fill="black"/>
</svg>

<svg xmlns="http://www.w3.org/2000/svg" fill="none" viewBox="0 0 24 25"><path fill="#000" fill-rule="evenodd" d="M4 5.688c0-1.802 1.404-3.4 3.313-3.4h5.03a4.13 4.13 0 0 1 2.917 1.19l.01.01 3.617 3.696a3.85 3.85 0 0 1 1.094 3.061v8.643c0 1.802-1.404 3.4-3.314 3.4H7.314c-1.91 0-3.314-1.598-3.314-3.4zm3.313-1.4C6.607 4.288 6 4.89 6 5.688v13.2c0 .798.607 1.4 1.313 1.4h9.355c.706 0 1.313-.602 1.313-1.4v-8.7q0-.062.008-.125c.061-.49-.133-1.083-.518-1.466l-.01-.01-3.615-3.694a2.13 2.13 0 0 0-1.504-.605z" clip-rule="evenodd"/><path fill="#000" fill-rule="evenodd" d="M10.633 13.716a1.4 1.4 0 1 0 1.98 1.98 1.4 1.4 0 0 0-1.98-1.98M9.22 17.11a3.4 3.4 0 1 1 4.808-4.808A3.4 3.4 0 0 1 9.22 17.11" clip-rule="evenodd"/><path fill="#000" fill-rule="evenodd" d="M12.572 15.703a1 1 0 0 1 1.413-.043l1.7 1.6a1 1 0 1 1-1.37 1.456l-1.7-1.6a1 1 0 0 1-.043-1.413" clip-rule="evenodd"/></svg>
